X:1
T:Die Kunst Der Fuge
T:Contrapunctus IX
T:J.S. Bach
%%score 1 2 3 4
L:1/8
M:4/4
K:F
V:1 treble nm="Organ" snm="Org."
V:2 treble nm="Organ" snm="Org."
V:3 bass nm="Organ" snm="Org."
V:4 bass nm="Organ" snm="Org."
V:1
 z8 | z8 | z8 | z8 | z8 | z8 | z8 | z2 A2 a4- | a2 ^g^f edc=B | A^GA=B cABc | d^cde fdef | %11
 Pf2 e2 z ede | fagf gfed | cfed edc_B | AdcB cBA^G | A2 e2 ^c4 | d4 z2 =c2- | c2 Bd g2 e2 | %18
 ^c4 z2 c2 | d2 f2 e/f/g B2 | A2 d2 ^c/d/e G2 | F4 z2 =c2 | =B4 z2 ^G2 | A8- | A4 z4 | =BcdB c4- | %26
 c4 _B4 | A4 G4 | FAGF GFED | GBAG AGFE | A2 c2 f4- | f4 e4- | e4 d4- | d4 T^c4 | d8 | a8 | f8 | %37
 d8 | ^c8 | d4 e4 | f8- | f2 g2 f2 e2 | d8- | ddcB cBAG | Ac'ba bagf | ef g2 z2 g2 | g2 f2 z cBc | %47
 A2 d2 c2 =B2 | c2 _BA B4 | A2 f2 d4- | dcBA BAGF | EFGA B4- | BA=Bc d4- | dcde f4- | ffed edc=B | %55
 cdc_B cBAG | A2 ^c2 d2 e2 | ABAG AGFE | FcBA BAGF | E2 e2 z ed^c | d2 A2 d2 =c2 | B2 A2 G2 F2 | %62
 EDEF GE A2- | AF d2- dGcB | AdcB cA c2- | cdcB cBAG | F8- | FAGF GFED | E8- | Egfe fedc | d8- | %71
 dfed edc=B | cedc dc=BA | =B2 z2 z4 | z2 E2 e4- | e2 ^d2 z2 d2 | efe=d edc=B | A2 a2 d2 f2- | %78
 fedc dc=BA | ^G4 A2 =B2 | c8- | c2 A2 d2 c2 | =B8- | B2 G2 c2 _B2 | A8 | e8 | cagf gfed | %87
 ^cedc dc=BA | d2 A2 a4- | a2 gf ed^c=B | AGA=B =cAB^c | d^cde fdef | f2 e2 z ede | fagf gfed | %94
 cfed edcB | AdcB cBAG | FBAG AGFE | D8- | DdcB cBAG | A2 z2 z4 | z4 B4- | B2 =B2 c2 ^c2 | %102
 z d=cB c2 d2 | B2 g4 f_e | d2 _e2 f2 z2 | z8 | z8 | z8 | z8 | z8 | z8 | z DE^F GFGA | BGA=B cBcd | %113
 _e2 d2 c2 _B2 | AGAB cA=B^c | d2 G4 F2- | FE D4 G2- | GBAG AGFE | FEFA GFED | E4 z2 ^c2 | %120
 d4- d=cBA | G8- | G8 | F4 z2 B2 | A4 z2 ^c2 | d=cBA BAG^F | G8- | GBAG AGFE | F3 G TE3 D | D8 |] %130
V:2
 z2 D2 d4- | d2 ^c=B AGFE | D^CDE FDEF | G^FGA BGAB | PB2 A2 z AGA | BdcB cBAG | FBAG AGFE | %7
 DGFE FEDC | =B,2 E2 ^G2 E2 | CDC=B, A,2 =G2 | FGFE D2 d2 | ^G2 A=B c2 B2 | A4 z2 ^G2 | A4 z2 E2 | %14
 F4 z2 F2 | E4 z2 G2- | G2 FG A4 | D4 z2 G2 | E2 FG F2 E2 | D2 z2 z2 E2 | F2 z2 z2 ^C2 | D4 z2 E2 | %22
 F2 D2 z FED | C=B,CD ECDE | F2 z2 z4 | z8 | z8 | z8 | z8 | z8 | z4 z2 A2 | BdcB cBAG | FAGF GFED | %33
 EBAG AGFE | DcBA GFEG | F2 E2 z2 ^c2 | d2 A2 d2 =c2- | c2 BA G2 F2 | E2 FG F2 E2 | D2 G4 B2 | %40
 A2 c2 F2 AG | Aed^c d=cBA | B2 c2 B2 A2 | G4 z4 | z2 C2 c4- | c2 BA GFED | CB,CD ECDE | %47
 FEFG AFGA | A2 G2 z GFG | AcBA BAGF | EAGF GFED | C4- CCDE | F4- FE^F^G | A4- A=GA=B | %54
 c2 E2 ^F2 ^G2 | A2 C2 D2 E2 | F2 G2 F2 ^C2 | ^C2 D2 z4 | D8 | A8 | F8 | D8 | ^C8 | D4 E4 | F8- | %65
 F2 G2 F2 E2 | DED^C D=CB,A, | =B,8- | B,DC=B, CB,A,^G, | A,2 z2 z4 | z c=BA BA^G^F | ^G2 z2 z4 | %72
 z2 E2 e4- | e2 dc =BA^G^F | EDE^F ^GEFG | A^GA=B cABc | c2 =B2 z BAB | cedc dc=BA | Gc=BA BAGF | %79
 E2 F2 E4- | E2 E2 A2 G2 | ^F2 z2 z4 | z2 D2 G2 ^F2 | E2 z2 z4 | z edc dc=BA | =BcBA BA^G^F | E8 | %87
 A8- | A2 de f2 ed | e2 z2 z4 | z4 z CDE | F2 z2 z FGA | BAGB A4- | A2 B4 cB | A2 F2 G2 E2 | %95
 F2 z2 z2 ^C2 | D2 z2 z4 | z8 | z2 D2 d4- | d2 cB AG^FE | D^CDE ^FDEF | G^FGA BGAB | B2 A2 z AGA | %103
 BdcB cBAG | FB_AG AGF_E | D4 _E2 F2 | B,2 =B,2 C2 D2 | _E8- | EGF_E FEDC | A8- | ABAG BAG^F | %111
 G2 z2 z4 | z8 | z =B,CD _ECD=E | F8- | F4 E4 | D3 C B,4 | A,2 z2 z4 | D8 | A8 | F8 | D8 | ^C8 | %123
 D4 E4 | F8- | F2 G2 F2 _E2 | D4 z2 D2 | E2 ^C2 D4- | D4 ^C4 | A,8 |] %130
V:3
 z8 | z8 | z8 | z8 | z8 | z8 | z8 | z8 | z8 | z8 | z8 | z8 | z8 | z8 | z8 | z8 | z8 | z8 | z8 | %19
 z8 | z8 | z2 A,2 A4- | A2 ^G^F EDC=B, | A,^G,A,=B, CA,B,C | D^CDE FDEF | F2 E2 z EDE | FAGF GFED | %27
 CFED ED^C=B, | A,2 _B,A, B,4- | B,2 CB, C4- | C2 z2 z4 | z8 | z8 | z8 | z2 D,2 D4- | %35
 D2 ^C=B, A,G,F,E, | D,^C,D,E, F,D,E,F, | G,^F,G,A, B,G,A,B, | B,2 A,2 z A,G,A, | B,DCB, CB,A,G, | %40
 F,B,A,G, A,G,F,E, | D,4- D,D,E,F, | G,A,G,F, G,F,E,D, | E,F,E,D, E,C,D,E, | F,8 | C8 | A,8 | F,8 | %48
 E,8 | F,4 G,4 | A,8- | A,2 B,2 A,2 G,2 | F,2 D2 C2 =B,2 | A,2 F2 E2 D2 | C4 =B,4 | A,4 G,4 | %56
 F,B,A,G, A,G,F,E, | F,G,F,E, F,E,D,^C, | D,4 z4 | z8 | z8 | z8 | z8 | z8 | z8 | z8 | z8 | z8 | %68
 z8 | z8 | z8 | z8 | A,8 | E8 | C8 | A,8 | ^G,8 | A,4 =B,4 | C8- | C2 D2 C2 =B,2 | %80
 A,^G,A,=B, CA,B,C | D^CDE ^FDEF | G,^F,G,A, =B,G,A,B, | C=B,CD ECDE | F,2 E,2 ^F,2 D,2 | %85
 G,2 ^F,2 ^G,2 E,2 | A,2 B,A, B,2 G,2- | G,GFE FED^C | FE,F,G, A,G,A,=B, | ^C=B,CD CD E2- | %90
 E2 D2 A,4- | A,2 F,2 B,2 D2 | G,2 B,2 E,G,F,E, | D,2 z2 z4 | z2 A,2 B,4 | C2 z2 z2 G,2 | %96
 A,2 E,2 F,2 G,2 | B,CB,A, B,A,G,^F, | G,8 | D8 | B,8 | G,8 | ^F,8 | G,4 A,4 | B,8- | %105
 B,2 C2 B,2 _A,2 | G,8- | G,2 G,2 =A,2 B,2 | C8- | C_EDC DCB,A, | B,4 C2 A,2 | B,2 C2 B,2 A,2 | %112
 G,4 A,2 =B,2 | C2 z2 z4 | z8 | z CB,A, G,B,A,G, | F,2 z2 z4 | z8 | z2 D,2 D4- | %119
 D2 ^C=B, A,G,F,E, | D,^C,D,E, F,D,E,F, | G,^F,G,A, B,G,A,[B,B,] | B,2 A,2 z A,G,A, | %123
 B,DCB, CB,A,G, | F,B,A,G, A,G,F,E, | D,4 z2 A,2 | B,4 z2 B,2 | ^C,2 G,2 F,2 B,2 | A,6 G,2 | %129
 ^F,8 |] %130
V:4
 z8 | z8 | z8 | z8 | z8 | z8 | z8 | z8 | z8 | z8 | z8 | z8 | z8 | z8 | z2 D,2 D4- | %15
 D2 ^C=B, A,G,F,E, | D,^C,D,E, F,D,E,F, | G,^F,G,A, B,G,A,B, | PB,2 A,2 z A,G,A, | B,DCB, CB,A,G, | %20
 F,B,A,G, A,G,F,E, | D,G,F,E, F,E,D,C, | D,2 =B,,2 E,4 | A,,4 z4 | z G,F,E, D,C,=B,,A,, | %25
 T^G,,3 ^F,,/G,,/ A,,=G,,=F,,E,, | D,,2 D,2 E,2 C,2 | F,2 =B,,2 ^C,2 A,,2 | D,4 z2 D,2 | %29
 E,4 z2 C,2 | F,A,G,F, G,F,E,D, | G,B,A,G, A,G,F,E, | A,4 z2 B,2 | G,2 E,2 A,2 A,,2 | %34
 B,,2 F,2 B,4 | A,4 z4 | z8 | z8 | z8 | z8 | z8 | z8 | z8 | z8 | z8 | z8 | z8 | z8 | z8 | z8 | z8 | %51
 z8 | z8 | z8 | z8 | z8 | z8 | z8 | z2 D,,2 D,4- | D,2 ^C,=B,, A,,G,,F,,E,, | %60
 D,,^C,,D,,E,, F,,D,,E,,F,, | G,,^F,,G,,A,, B,,G,,A,,B,, | B,,2 A,,2 z A,,G,,A,, | %63
 B,,D,C,B,, C,B,,A,,G,, | F,,B,,A,,G,, A,,G,,F,,E,, | D,,4 z4 | z2 D,,2 E,,2 F,,2 | %67
 G,,2 G,2 E,2 G,2 | C,2 C,,2 D,,2 E,,2 | F,,2 A,2 D,2 F,2 | =B,,2 D,2 ^G,,2 B,,2 | %71
 E,,2 E,2 ^F,2 ^G,2 | A,8- | A,^G,A,^F, G,2 =B,2 | =B,2 A,2 z2 E,2 | F,8 | E,8 | z8 | z8 | %79
 z D,C,=B,, C,B,,A,,^G,, | A,,2 z2 z4 | z8 | z8 | z8 | z8 | z8 | z8 | z8 | D,8 | A,8 | F,8 | D,8 | %92
 ^C,8 | D,4 E,4 | F,8- | F,2 G,2 F,2 E,2 | D,8- | D,_E,D,C, D,C,B,,A,, | B,,4 z2 B,2 | %99
 ^F,2 A,2 F,2 D,2 | G,4 D,4 | _E,2 F,2 =E,2 _E,2 | D,4 z C,B,,A,, | G,,2 z2 z4 | z2 _E,2 D,2 G,2 | %105
 F,_A,G,F, G,F,_E,D, | _E,F,E,D, E,D,C,=B,, | C,D,C,_B,, C,B,,A,,G,, | A,,B,,A,,G,, A,,G,,^F,,E,, | %109
 ^F,,4 z2 ^F,2 | G,2 _E,2 C,2 D,2 | G,,2 z2 z4 | z2 F,2 _E,2 D,2 | C,2 z2 z4 | z E,F,G, A,F,G,A, | %115
 B,2 z2 z4 | z G,F,E, D,F,E,D, | ^C,2 E,2 C,2 A,,2 | D,2 =C,2 B,,4 | A,,4 z2 A,,2 | B,,8- | %121
 B,,4 z E,F,G, | A,,E,A,G, F,2 E,2 | D,4 z2 ^C,2 | D,4 z2 A,,2 | B,,4 z2 C,2 | %126
 B,,C,B,,A,, B,,A,,G,,F,, | E,,2 E,2 F,2 G,2 | A,2 G,2 A,2 A,,2 | D,8 |] %130

